packages/storefront-lwc/src/assets/fonts/flags/1x1/tz.svg

<svg height="512" width="512" xmlns="http://www.w3.org/2000/svg" xmlns:xlink="http://www.w3.org/1999/xlink"><clipPath id="a"><path d="m102.87 0h496.06v496.06h-496.06z"/></clipPath><g clip-path="url(#a)" transform="matrix(1.0321 0 0 1.0321 -106.17 0)"><g fill-rule="evenodd" stroke-width="1pt"><path d="m0 0h744.102v496.068h-744.102z" fill="#09f"/><path d="m0 0h744.102l-744.102 496.068z" fill="#090"/><path d="m0 496.068h165.356l578.746-392.72v-103.348h-165.356l-578.746 392.72z"/><path d="m0 378.07 567.088-378.07h55.89l-622.978 415.333zm121.103 117.998 622.979-415.333v37.263l-567.089 378.07h-55.893z" fill="#ff0"/></g></g></svg>

<svg xmlns="http://www.w3.org/2000/svg" height="512" width="512" id="flag-icon-css-tz">
  <defs>
    <clipPath id="a">
      <path fill-opacity=".67" d="M102.87 0h496.06v496.06H102.87z"/>
    </clipPath>
  </defs>
  <g clip-path="url(#a)" transform="translate(-106.17) scale(1.0321)">
    <g fill-rule="evenodd" stroke-width="1pt">
      <path fill="#09f" d="M0 0h744.102v496.068H0z"/>
      <path d="M0 0h744.102L0 496.068V0z" fill="#090"/>
      <path d="M0 496.068h165.356l578.746-392.72V0H578.746L0 392.72v103.348z"/>
      <path d="M0 378.07L567.088 0h55.89L0 415.333V378.07zm121.103 117.998L744.082 80.735v37.263l-567.089 378.07H121.1z" fill="#ff0"/>
    </g>
  </g>
</svg>
